app/src/assets/image/logos/php.svg

<svg width="256" height="134" viewBox="0 0 256 134" xmlns="http://www.w3.org/2000/svg"><title>php</title><g fill="none" fill-rule="evenodd"><ellipse fill="#8993BE" fill-rule="nonzero" cx="128" cy="66.63" rx="128" ry="66.63"/><path d="M35.945 106.082l14.028-71.014H82.41c14.027.877 21.041 7.89 21.041 20.165 0 21.041-16.657 33.315-31.562 32.438H56.11l-3.507 18.411H35.945zm23.671-31.561h10.521c7.89-.877 14.904-3.507 15.78-18.412 0-5.26-4.383-7.89-10.52-7.89H64l-4.384 26.302zm40.576 13.15l14.027-71.013h16.658l-3.507 18.41h15.78c14.028.877 19.288 7.89 17.535 16.658l-6.137 35.945h-17.534l6.137-32.438c.876-4.384.876-7.014-5.26-7.014H124.74l-7.89 39.452h-16.658zm53.233 18.411l14.027-71.014h32.438c14.028.877 21.042 7.89 21.042 20.165 0 21.041-16.658 33.315-31.562 32.438h-15.781l-3.507 18.411h-16.657zm23.67-31.561h10.522c7.89-.877 14.904-3.507 15.78-18.412 0-5.26-4.383-7.89-10.52-7.89h-11.398l-4.384 26.302z" fill="#232531"/></g></svg>

<?xml version="1.0" encoding="UTF-8"?>
<svg width="256px" height="134px" viewBox="0 0 256 134" version="1.1" xmlns="http://www.w3.org/2000/svg" xmlns:xlink="http://www.w3.org/1999/xlink">
    <!-- Generator: Sketch 43.2 (39069) - http://www.bohemiancoding.com/sketch -->
    <title>php</title>
    <desc>Created with Sketch.</desc>
    <defs></defs>
    <g id="Page-1" stroke="none" stroke-width="1" fill="none" fill-rule="evenodd">
        <g id="php">
            <ellipse id="Oval" fill="#8993BE" fill-rule="nonzero" cx="128" cy="66.63" rx="128" ry="66.63"></ellipse>
            <path d="M35.945,106.082 L49.973,35.068 L82.41,35.068 C96.437,35.945 103.451,42.958 103.451,55.233 C103.451,76.274 86.794,88.548 71.889,87.671 L56.11,87.671 L52.603,106.082 L35.945,106.082 Z M59.616,74.521 L59.617,74.521 L70.137,74.521 C78.027,73.644 85.041,71.014 85.917,56.109 C85.917,50.849 81.534,48.219 75.397,48.219 L64,48.219 L59.616,74.521 Z" id="Combined-Shape" fill="#232531"></path>
            <path d="M100.192,87.671 L114.219,16.658 L130.877,16.658 L127.37,35.068 L143.15,35.068 C157.178,35.945 162.438,42.958 160.685,51.726 L154.548,87.671 L137.014,87.671 L143.151,55.233 C144.027,50.849 144.027,48.219 137.891,48.219 L124.74,48.219 L116.85,87.671 L100.192,87.671 L100.192,87.671 Z" id="Path" fill="#232531"></path>
            <path d="M153.425,106.082 L167.452,35.068 L199.89,35.068 C213.918,35.945 220.932,42.958 220.932,55.233 C220.932,76.274 204.274,88.548 189.37,87.671 L173.589,87.671 L170.082,106.082 L153.425,106.082 L153.425,106.082 Z M177.095,74.521 L177.096,74.521 L187.617,74.521 C195.507,73.644 202.521,71.014 203.397,56.109 C203.397,50.849 199.014,48.219 192.877,48.219 L181.479,48.219 L177.095,74.521 Z" id="Combined-Shape" fill="#232531"></path>
        </g>
    </g>
</svg>
